X:2241
T:Brussels Waltz,The. CJF.133
M:3/8
L:1/16
Q:50
S: C.J.Fox MS, 1829/33, Beverley,E.Yorks.
R:Waltz
O:England
A:East Yorkshire
B:Kidson Coll.Mitchell Lib.M1805
Z:P J Headford 2000
K:C
G2|c>Bc>de>d|(ce) g2 (ec)|(Bd) f2 (dB)|!\
ce G2G2|c>Bc>de>d|(ce) g2 (ec)|(Bd) f2 (dB)|c4:||:!
c2|a^fd3 A|BdG2 g2|^fad3 c|BdG2 G2|!\
c>Bc>de>d|cea3 ^f|f3e=fd|c4:||


